X: 23282
T: Leaving Uist
R: waltz
M: 3/4
K: Eminor
ed||B3 BAG|AGE2EG|A3 BA2|e3 ede|
g3 aag|edB2BA|G3 AAG|E3 eed|
B3 BAG|AGE2EG|A3 BA2|e3 ede|
g3 aag|edB2BA|G3 Bde|A3 aa2|
a3 bb2|age2c|d3 eg2|g3 aag|
deg aed|ABd eAG|G3 dB2|E3 eed|
B3 BAG|AGE2EG|A3 dB2|e3 ede|
g3 aag|edB2BA|G3 ABd|A3 eed|
B3 BAG|AGE2EG|A3 BA2|e3 ede|
g3 aag|edB2BA|G3 AAG|E3||

